!!!OTL: Anna im Grabe (54b), S. 173
!!!id: T0196
**kern
*clefG2
*k[f#]
*G:
{4d
=1
4g
4b
4d
4g
=2
4e
8g
8e
4d}
=3
{4g
=4
4f#
4g
4a
4b
=5
2a}
4r
=6
{8d
8d
=7
4.cc
8b
8a
8a
8dd
8cc
=8
4.b
8a
4g}
=9
{8d
8d
=10
4e
8cc
8cc
4b
4a
=11
2g}
4r
==
*-
!!!minrhy: 8
!!!meters: 4/4 ]  ZZ[4
!!!cut: Anna im Grabe (54b), S. 173
!!!reg: Luxemburg
!!!trd: Singendes Volk, Esch-Alzette 1937 posth.
!!!rhy1: X_  X_X_X_X_  X_XXX_
!!!rhy2: X_  X_X_X_X_  X__0_
!!!key: T0196  08  G 4/4 ]  ZZ[4
!!!mod: HEPTATONIK IONISCH]  AMBITUS[8
!!!kad: -5211
!!!akz: 1-5-6-5_-722_4231_-631_
!!!fot: 'a__b__c__d__
!!!for: 'a__aw_b__c__
!!!fok: '^__/__^a_^a_
!! PHRAS[AUFTAKTIG]
!!!fkt: Liebeslieder
!!!bem1: Rodershausen, fff Lena Peters, 1930,
!!!bem2: mitgeteilt: hhh Josef Bour (Lehrer)
!! THILL, Mathias:
!! PR[21] 2K[0] 2G[6] 3K[6] 3G[3] 4A[12] 4Ü[0] 5A[3] 6K[0] 6G[0]
!! 7K[3] 7G[0] 8A[0] MEHR[0] SI[32] ABS[34] SR[6] SP[26]
!! ST[8] 2k[9] 2g[24] 3k[6] 3g[0] 4d[3] 4ü[0] 5d[3] 6k[0] 6g[3]
!! 7k[0] 7g[0] 8d[0] mehr[0] si[47] dm[-15] sr[32] sp[15]
!! 1F[43] 2F[46] 3F[5] 4F[0] LF[0] 2P[5] 3P[0] 4P[0] TRI[0] DF[4] AB[37]
!! TF[0] U3K[0] U3[0] U4[0] U4Ü[0] U5[20] U6K[0] U6[6] U7K[0] U7[0]
!! N1[23] N2K[0] N2[23] N3K[0] N3[17] N4[9] N4Ü[0] N5[3] N6K[0] N6[0]
!!!n7k: 0] N7[0] O1[0] O2K[0] O2[0] O3K[0] O3[0] HÖ[0
